X:0025
T:Lango Lee.
N:which means "The Stiff Dick" in Irish
N:no repeat marked after first part
M:6/8
L:1/8
Q:3/8=120
I: :: ::
Z:Jack Campin * www.campin.me.uk * 2009
K:G
D|D>EF G>AB|c>ed cBA |B>GE D>EG|B>cA G2
D|D>EF G>AB|c>ed cBA |B>GE D>EG|B>cA G2||
c|B2c  d3  |e>ce d>BG|B>cd e>fg|G>BG G>E
D|c>ec B>dB|A>GA BGE |G>FE Ddc |B>cA G2|]
<end>
<start>
